img/favorites/favorites-delete-button.svg

<svg width="16" height="16" viewBox="0 0 16 16" fill="none" xmlns="http://www.w3.org/2000/svg">
<path d="M15.3 2.3H13.1H2.8H0.6C0.3 2.3 0 2.5 0 2.8C0 3.1 0.3 3.4 0.6 3.4H2.3V15.4C2.3 15.7 2.6 16 2.9 16H13.1C13.4 16 13.7 15.7 13.7 15.4V3.4H15.4C15.7 3.4 16 3.1 16 2.8C16 2.5 15.6 2.3 15.3 2.3ZM12.5 14.8H3.4V3.4H12.5V14.8Z" fill="black"/>
<path d="M6.19995 1.2H9.59995C9.89995 1.2 10.2 0.9 10.2 0.6C10.2 0.3 9.99995 0 9.69995 0H6.19995C5.89995 0 5.69995 0.3 5.69995 0.6C5.69995 0.9 5.89995 1.2 6.19995 1.2Z" fill="black"/>
<path d="M6.2001 12C6.5001 12 6.8001 11.7 6.8001 11.4V5.7C6.8001 5.4 6.5001 5.1 6.2001 5.1C5.9001 5.1 5.6001 5.4 5.6001 5.7V11.4C5.7001 11.7 5.9001 12 6.2001 12Z" fill="black"/>
<path d="M9.7001 12C10.0001 12 10.3001 11.7 10.3001 11.4V5.7C10.3001 5.4 10.0001 5.1 9.7001 5.1C9.4001 5.1 9.1001 5.5 9.1001 5.7V11.4C9.1001 11.7 9.3001 12 9.7001 12Z" fill="black"/>
</svg>

<svg width="16" height="16" fill="none" xmlns="http://www.w3.org/2000/svg"><g opacity=".2" fill="#000"><path d="M15.3 2.3H.6c-.3 0-.6.2-.6.5s.3.6.6.6h1.7v12c0 .3.3.6.6.6h10.2c.3 0 .6-.3.6-.6v-12h1.7c.3 0 .6-.3.6-.6s-.4-.5-.7-.5Zm-2.8 12.5H3.4V3.4h9.1v11.4ZM6.2 1.2h3.4c.3 0 .6-.3.6-.6S10 0 9.7 0H6.2c-.3 0-.5.3-.5.6s.2.6.5.6Z"/><path d="M6.2001 12c.3 0 .6-.3.6-.6V5.7c0-.3-.3-.6-.6-.6s-.6.3-.6.6v5.7c.1.3.3.6.6.6ZM9.7001 12c.3 0 .6-.3.6-.6V5.7c0-.3-.3-.6-.6-.6s-.6.4-.6.6v5.7c0 .3.2.6.6.6Z"/></g></svg>
